X: 65
T: The Monster
R: reel
M: 2/4
L: 1/8
Z: 2012 John Chambers <jc:trillian.mit.edu>
B: Saml. Ann & Peter Thompson "Twenty Four Country Dances for the Year 1791", London 1791, p.33 #1
K: G
% - - - - - - - - - - - - - - - - - - - - - - - - -
|:\
G2 Bc | d2 BG | e2 cA | FA D2 |\
G2 Bc | d2 BG | ec AF | G2 G2 :|
|:\
b/g/d/B/ Gb | a/f/d/A/ Fa | g/e/B/G/ Eg | f/d/A/F/ D2 |\
G2 Bc | d2 BG | ec AF | G2 G2 :|
% - - - - - - - - Dance description - - - - - - - -
%%begintext align
%% Hey contrary sides .|.
%% then on your own sides :|.
%% Hands 6 quite round .|:
%% lead thro' the 3d Cu and cast up one lead to the top and cast off :|:
%%endtext

%%sep 1 1 500
%%sep 1 1 500
